2 Export/Icons/Rounded/Cancel - Circle.svg

<svg xmlns="http://www.w3.org/2000/svg" xmlns:xlink="http://www.w3.org/1999/xlink" width="24" height="24" viewBox="0 0 24 24">
  <defs>
    <path id="cancel---circle-a" d="M12 4c-4.424 0-8 3.576-8 8 0 4.424 3.576 8 8 8 4.424 0 8-3.576 8-8 0-4.424-3.576-8-8-8zm3.44 11.44a.797.797 0 0 1-1.128 0L12 13.128 9.688 15.44a.797.797 0 1 1-1.128-1.128L10.872 12 8.56 9.688A.797.797 0 1 1 9.688 8.56L12 10.872l2.312-2.312a.797.797 0 1 1 1.128 1.128L13.128 12l2.312 2.312a.812.812 0 0 1 0 1.128z"/>
  </defs>
  <g fill="none" fill-rule="evenodd">
    <polygon points="0 0 24 0 24 24 0 24"/>
    <mask id="cancel---circle-b" fill="#fff">
      <use xlink:href="#cancel---circle-a"/>
    </mask>
    <use fill="#000" xlink:href="#cancel---circle-a"/>
    <g fill="#000" mask="url(#cancel---circle-b)">
      <rect width="24" height="24"/>
    </g>
  </g>
</svg>

<svg xmlns="http://www.w3.org/2000/svg" xmlns:xlink="http://www.w3.org/1999/xlink" width="24" height="24" viewBox="0 0 24 24">
  <defs>
    <path id="cancel---circle-a" d="M12,4 C7.576,4 4,7.576 4,12 C4,16.424 7.576,20 12,20 C16.424,20 20,16.424 20,12 C20,7.576 16.424,4 12,4 Z M15.44,15.44 C15.128,15.752 14.624,15.752 14.312,15.44 L12,13.128 L9.688,15.44 C9.376,15.752 8.872,15.752 8.56,15.44 C8.248,15.128 8.248,14.624 8.56,14.312 L10.872,12 L8.56,9.688 C8.248,9.376 8.248,8.872 8.56,8.56 C8.872,8.248 9.376,8.248 9.688,8.56 L12,10.872 L14.312,8.56 C14.624,8.248 15.128,8.248 15.44,8.56 C15.752,8.872 15.752,9.376 15.44,9.688 L13.128,12 L15.44,14.312 C15.744,14.616 15.744,15.128 15.44,15.44 Z"/>
  </defs>
  <g fill="none" fill-rule="evenodd">
    <polygon points="0 0 24 0 24 24 0 24"/>
    <mask id="cancel---circle-b" fill="#fff">
      <use xlink:href="#cancel---circle-a"/>
    </mask>
    <use fill="#000" xlink:href="#cancel---circle-a"/>
    <g fill="#000" mask="url(#cancel---circle-b)">
      <rect width="24" height="24"/>
    </g>
  </g>
</svg>
